assets/icons/svg/gear.svg

<svg xmlns="http://www.w3.org/2000/svg" viewBox="0 0 512 512"><!--! Font Awesome Pro 6.1.1 by @fontawesome - https://fontawesome.com License - https://fontawesome.com/license (Commercial License) Copyright 2022 Fonticons, Inc.--><path d="M495.9 166.6c3.3 8.6.5 18.3-6.3 24.6l-43.3 39.4c1.1 8.3 1.7 16.8 1.7 25.4 0 8.6-.6 17.1-1.7 25.4l43.3 39.4c6.8 6.3 9.6 16 6.3 24.6-4.4 11.9-9.7 23.4-15.7 34.3l-4.7 8.1c-6.6 11-14 21.4-22.1 31.3-6 7.1-15.7 9.6-24.5 6.8l-55.7-17.8c-13.4 10.3-29.1 18.9-44 25.5l-12.5 57.1c-2 9-9 15.4-18.2 17.8-13.8 2.3-28 3.5-43.4 3.5-13.6 0-27.8-1.2-41.6-3.5-9.2-2.4-16.2-8.8-18.2-17.8l-12.5-57.1c-15.8-6.6-30.6-15.2-44-25.5l-55.66 17.8c-8.84 2.8-18.59.3-24.51-6.8-8.11-9.9-15.51-20.3-22.11-31.3l-4.68-8.1c-6.07-10.9-11.35-22.4-15.78-34.3-3.24-8.6-.51-18.3 6.35-24.6l43.26-39.4C64.57 273.1 64 264.6 64 256c0-8.6.57-17.1 1.67-25.4l-43.26-39.4c-6.86-6.3-9.59-15.9-6.35-24.6 4.43-11.9 9.72-23.4 15.78-34.3l4.67-8.1c6.61-11 14.01-21.4 22.12-31.25 5.92-7.15 15.67-9.63 24.51-6.81l55.66 17.76c13.4-10.34 28.2-18.94 44-25.47l12.5-57.1c2-9.08 9-16.29 18.2-17.82C227.3 1.201 241.5 0 256 0s28.7 1.201 42.5 3.51c9.2 1.53 16.2 8.74 18.2 17.82l12.5 57.1c14.9 6.53 30.6 15.13 44 25.47l55.7-17.76c8.8-2.82 18.5-.34 24.5 6.81 8.1 9.85 15.5 20.25 22.1 31.25l4.7 8.1c6 10.9 11.3 22.4 15.7 34.3zM256 336c44.2 0 80-35.8 80-80.9 0-43.3-35.8-80-80-80s-80 36.7-80 80c0 45.1 35.8 80.9 80 80.9z"/></svg>

<svg xmlns="http://www.w3.org/2000/svg"
	 viewBox="0 0 512 512"><!--! Font Awesome Pro 6.1.1 by @fontawesome - https://fontawesome.com License - https://fontawesome.com/license (Commercial License) Copyright 2022 Fonticons, Inc. -->
	<path
		d="M495.9 166.6C499.2 175.2 496.4 184.9 489.6 191.2L446.3 230.6C447.4 238.9 448 247.4 448 256C448 264.6 447.4 273.1 446.3 281.4L489.6 320.8C496.4 327.1 499.2 336.8 495.9 345.4C491.5 357.3 486.2 368.8 480.2 379.7L475.5 387.8C468.9 398.8 461.5 409.2 453.4 419.1C447.4 426.2 437.7 428.7 428.9 425.9L373.2 408.1C359.8 418.4 344.1 427 329.2 433.6L316.7 490.7C314.7 499.7 307.7 506.1 298.5 508.5C284.7 510.8 270.5 512 255.1 512C241.5 512 227.3 510.8 213.5 508.5C204.3 506.1 197.3 499.7 195.3 490.7L182.8 433.6C167 427 152.2 418.4 138.8 408.1L83.14 425.9C74.3 428.7 64.55 426.2 58.63 419.1C50.52 409.2 43.12 398.8 36.52 387.8L31.84 379.7C25.77 368.8 20.49 357.3 16.06 345.4C12.82 336.8 15.55 327.1 22.41 320.8L65.67 281.4C64.57 273.1 64 264.6 64 256C64 247.4 64.57 238.9 65.67 230.6L22.41 191.2C15.55 184.9 12.82 175.3 16.06 166.6C20.49 154.7 25.78 143.2 31.84 132.3L36.51 124.2C43.12 113.2 50.52 102.8 58.63 92.95C64.55 85.8 74.3 83.32 83.14 86.14L138.8 103.9C152.2 93.56 167 84.96 182.8 78.43L195.3 21.33C197.3 12.25 204.3 5.04 213.5 3.51C227.3 1.201 241.5 0 256 0C270.5 0 284.7 1.201 298.5 3.51C307.7 5.04 314.7 12.25 316.7 21.33L329.2 78.43C344.1 84.96 359.8 93.56 373.2 103.9L428.9 86.14C437.7 83.32 447.4 85.8 453.4 92.95C461.5 102.8 468.9 113.2 475.5 124.2L480.2 132.3C486.2 143.2 491.5 154.7 495.9 166.6V166.6zM256 336C300.2 336 336 300.2 336 255.1C336 211.8 300.2 175.1 256 175.1C211.8 175.1 176 211.8 176 255.1C176 300.2 211.8 336 256 336z"/>
</svg>
